X:1
T:Rigaudon
T:Rigaudon
T:Renaissance Suite #2
T:Jean Philippe Rameau (1683-1764) 
T:Freely arranged for piano by Leopold Godowsky 
T:Act I Scene 3 from Dardanus
C:Jean Philippe Rameau (1683-1764)
Z:Freely arranged for piano by Leopold Godowsky
%%score { ( 1 3 5 ) | ( 2 4 6 ) }
L:1/8
Q:1/4=140
M:4/4
K:E
V:1 treble nm="Piano" snm="Pno."
V:3 treble 
V:5 treble 
V:2 treble 
V:4 treble 
V:6 treble 
V:1
"^Allegretto vivace e grazioso"!<(! !>!B2 | !wedge!e!<)! z!p! !wedge!e z !wedge!e z !wedge!e z |: %2
 !wedge!e z !wedge!e z !wedge!e z !wedge!e z | .e2 ([Bd][Ac] .[GB]2) .[FA]2 | %4
{GA} .[EG].F !>!E4 .[B,F]2 |!<(! ([EG][FA] .[GB]2)!<)!!<(! .[EB]2 .[EB]2!<)! | %6
!<(! ([EG][FA] .[GB]2)!<)!!<(! .B2 .B2!<)! |!>(! (!>!GFEF .G2)!>)!!<(! (^A/B/A/B/)!<)! | %8
!>(! (^A4 .B2)!>)! (!>!B2- | !wedge!e) z!p! !wedge!e z !wedge!e z !wedge!e z | %10
 !wedge!e z !wedge!e z !wedge!e z !wedge!e z | .e2 ([Bd][Ac] .[GB]2) .[FA]2 | %12
{GA} .[EG].F !>!E4 .F2 |!<(! (G[FA] .[GB]2)!<)! .B2 .B2 |!<(! (GA .B2)!<)! .B2 .B2 | %15
!>(! (!>!GFEF .G2)!>)!!<(! (^A/B/A/B/)!<)! |!>(! (^A4 B2)!>)! !>!B2 | %17
 !wedge!e z !wedge!e z !wedge!e z !wedge!e z | %18
 !wedge!e z!<(![I:staff +1] [B,=DE][I:staff -1]E[I:staff +1] [A,CE][I:staff -1]E[I:staff +1] [=G,B,^E][I:staff -1]^E!<)! | %19
 z2 !wedge!f z !wedge!f z !wedge!f z | %20
 !wedge!f z!<(![I:staff +1] [CEF][I:staff -1]F[I:staff +1] [B,DF][I:staff -1]F[I:staff +1] [A,C^^F][I:staff -1]^^F!<)! | %21
 z2 !wedge!g z !wedge!g z !wedge!g z | %22
 !wedge!g z!<(![I:staff +1] [DFG][I:staff -1]G[I:staff +1] [CEG][I:staff -1]G[I:staff +1] [CEA][I:staff -1]A!<)! | %23
 z2"_molto crescendo"!<(![I:staff +1] [ega][I:staff -1]a[I:staff +1][dfa][I:staff -1]a[I:staff +1][^cea][I:staff -1]a | %24
[I:staff +1] [Bda][I:staff -1]a[I:staff +1][ega][I:staff -1]a[I:staff +1][dfa][I:staff -1]a[I:staff +1][cea][I:staff -1]a!<)! | %25
!f!!>(! (a>f g2) (f>d e2) | (d>B ^c2) (B>G A2)!>)! | !>!A8- | %28
 A2!f!!>(! .[d'f'].[c'e'] .[bd'].[ac']!>)!.[gb].[fa] | %29
!mp!!<(! ([eg][fa] .[gb]2)!<)!!<(! .b2 .b2!<)! |!<(! (ga .b2)!<)! .b2 .b2 | %31
!<(! (gabe!<)!!>(!{fg} !>!f3 e!>)! | !tenuto!e6)!p! .F2 | (GA .B2) .B2 .B2 | (GA .B2) .B2 .B2 | %35
!>(! (AG)!>)!.F.E!>(! (GF)!>)!.E.D | !tenuto!E6!mf! (BA | .e2) .e2 .e2 .e2 | .c2 (C2 !>!c2 B2 | %39
 ^A2)"^poco a poco crescendo" .f2 .f2 .f2 | .d2 D2 (!>!d2 c2 | ^B2) .g2 .g2 .g2 | .e2 (G2 e2 f2 | %43
 d2) .a2 .a2 .a2 |!<(! aaa"_molto"a aaaa!<)! |!f! (a>f g2) (f>d e2) |!>(! (d>B ^c2) (B>G A2)!>)! | %47
!p! !>!A8- | A2 ([faf']!f![ege'] [dfd'][cec'][Bdb][Afa]) |!f! e2 (ef ge!>!df) | e2 (ef ge!>!df) | %51
!<(! (.g.a!>!.[Beb].[Ee]!<)! !>![Ff]3 [Ee] | !tenuto![EGe]2) !>!.B!p!!>!.E .F.[EG].[DA].[=DGB] | %53
!<(! ([CAc][Bd]!<)! .e2) .e2 .e2 |!<(! ([Ac][Bd]!<)! .e2) .e2 .e2 | %55
!<(! cdef!<)!!>(!{de} d7/2 e/!>)! |!>(! [EG] .[EG].[FA].[EG] .[B,F].[G,E].[F,B,].[G,^B,]!>)! | %57
!pp! (CD .E2) .E2 .E2 |{CD} (CD .E2) .E2 .E2 | (FGAF{DE} !>!D3 E | !tenuto!E6)!fine! |!p! (B2 || %62
[K:G]"_legato ed espr." c2 B4 A2 | B2 A4 G2 | A2 G4 F2 | GFE^D E2) B2 | B4{GA} B4 | B4- B2 B2 | %68
 B4"_rit." (^c3 ^d/e/ |{^de} d6) (d2 |"_a tempo" e2 =d4 c2 | [DB]2 [EA]4 [DB]2 | G2 A2{/A} G4 | %73
 [DA]4)!mf!!<(! !>![DGd]4 | !>![^CGd]4 !>![=CFd]4!<)! | [Gdg]4 !>!.[ce].[Bd].[Ac].[GB] | %76
 .[FA].[EG].[DF].[^CB]!>(!{AB} (A3 G)!>)! | G4!p!!<(! !>!d4 | !>!d4 !>!d4!<)! |!p! b4!p! x4 | %80
 .[FA].[EG].[DF].[^CB]!>(!{AB} (A3 G)!>)! | G4 z2!pp! (B2 |"_legato ed espr." c2 B4 A2 | B2 A4 G2 | %84
 A2 G4 F2 | GFE^D E2) G2 | B4{GA} B4 | B4- B2 B2 | B4 (^c3 ^d/e/ |{^de} d6)"_a" d2 | e2 =d4 A2 | %91
 B2 A4 B2 | G2 F2{/A} G4{FG-} | A4!mp!!<(! !tenuto![B,=FB]4 | %94
 !tenuto![^A,EB]4 !tenuto![=A,^DB]4!<)! | [EGe]4 .[CF].[B,G].[A,F].[G,E] | %96
 .[F,^D].[E,^C].[^D,B,].[E,E]!>(! A,4 | E4!>)! !tenuto!B4 | !tenuto!B4 !tenuto!B4 | %99
"_rit." !fermata!g4"_a tempo" x4 | .^d.^c.B.e .d.c.B.e | .^d.^c.B.e .d.c.B.d || %102
[K:E] !wedge!e!p! z !wedge!e z !wedge!e z !wedge!e z!D.C.! |] %103
V:2
 z2 | z2 !wedge!A z !wedge!G z !wedge!F z |: !wedge!E z !wedge!E z !wedge!E z !wedge!E z | %3
 .G,2 .A,2 .B,2[K:bass] .B,,2 | .E,2 .B,,2 .E,,2 z2 | z2 .[E,,B,,]2 (F,G, A,2) | %6
 z2 .[E,,B,,]2 (F,G, A,2) | z2 ([A,,E,]2 [G,,E,]2 =G,,2 | .F,,2) .F,2 .B,,2 z2 | %9
!ped! E,,2!ped-up![K:treble] .Az.Gz.F z | .Ez.[CE]z.[B,E]z.[A,E] z | %11
 .[G,E]2 .A,2 .B,2[K:bass] .B,,2 | .E,,2 .B,,2 .E,2[I:staff -1] .B,2 | %13
[I:staff +1] z2!<(! .B,,.E, (F,G, .A,2)!<)! | z2!<(! .B,,.E, (F,G, .A,2)!<)! | G,2 (G,2- G,2 =G,2 | %16
 F,6) z2 |!ped! E,,,2!ped-up![K:treble] !wedge!B z !wedge!A z !wedge!E z | !wedge!E z x2 x4 | %19
!ped! !>![F,^A,F]2!ped-up! !wedge!c z !wedge!B z !wedge!F z | !wedge!F z x2 x4 | %21
!ped! !>![G,^B,G]2!ped-up! !wedge!d z !wedge!c z !wedge!G z | !wedge!G z x2 x4 | %23
!ped! !>![B,DA]2!ped-up! x6 | x8!ped!!ped-up! |!ped! (=c2 B!ped-up!^A!ped! =A2 G=G!ped-up! | %26
!ped! F2 ^E!ped-up!E!ped! D=DC!ped-up!=C |[K:bass] !wedge!B,2) !wedge!B,2 !wedge!B,2 !wedge!B,2 | %28
 !wedge!B,2 !wedge!B,2 !wedge!B,2 !wedge!B,2 | z2 .B,.E (FG .A2) | z2 .B,.E!<(! (FG .A2)!<)! | %31
 z2 (.[G,E]2 .[A,E]2 .[B,D]2) | .E2 .B,2 .E,2 .B,2 | z2 .B,,.E, (F,G, .A,2) | %34
 z2 .B,,.E, (F,G, .A,2) | z2 (.[G,,E,]2 .[A,,E,]2 .B,,2) | .E,2 .B,,2 .E,,2 z2 | z2 .E2 .E2 .E2 | %38
[I:staff -1] .E2[I:staff +1] .A,,2 .A,,2 (.G,,.=G,, | .F,,2) .F2 .F2 .F2 | %40
[I:staff -1] .F2[I:staff +1] .B,,2 .B,,2 (.^A,,.=A,, |!ped! .G,,2)!ped-up! .G2 .G2 .G2 | %42
!ped![I:staff -1] .G2[I:staff +1] .C,2!ped-up! .C,2 .=C,2 | %43
!ped! .B,,2[K:treble] .B2!ped-up! .B2 .B2 | BBBB BBBB | %45
!ped! B[K:bass] (B,,E,!ped-up!^^C, D,F,B,^A, |!ped! =A,) (B,,G,!ped-up!^E, F,A,C=C | %47
 .B,2) .B,2 .B,2 .B,2 | .B,2!ped! (F,G,!ped-up!!ped! A,^A,!ped-up!!ped!B,D)!ped-up! | %49
!ped! [E,,B,,E,]2!ped-up!!<(! (G,B, EG!ped! A2)!<)!!ped-up! | %50
!ped! [E,,B,,E,]2!ped-up!!<(! (G,B, EG!ped! A2)!<)!!ped-up! | %51
!ped! [EG]A!ped-up!!ped! [G,,E,B,]2!ped-up!!ped! [A,,E,C]2!ped-up!!ped! [B,,D,B,]2!ped-up! | %52
!ped! .[E,,E,].[B,,G,].[E,B,].G,!ped-up! !>!.B,!>!.E,!>!.B,,!>!.E,, | z2!<(! (A,,C, E,2) G,B, | %54
 A,2!<)!!<(! (A,,C, E,2) (G,B,!<)! |!>(! EDC=C B,^A,!>)! =A,)B,, | %56
!ped! .[E,,E,].B,,!ped-up!.[E,,E,].B,, .D,.E,.D,.=D, | %57
 (C,=C,!ped! [E,,B,,]2)[K:treble] (GA B2)!ped-up! | %58
[K:bass] (C,=C,!ped! [E,,B,,]2)[K:treble] (.G.A .B2)!ped-up! |[K:bass] E,4 (.B,,2 .B,,,2) | %60
 .E,,2 .B,,,2 .E,,,2 | z2 ||[K:G] (A,,2 B,,2 C,2 ^C,2 | D,2 ^D,2 E,4 | F,2 G,2 A,2 ^A,2 | %65
 B,2 F,2 G,2)!ped! E,2!ped-up! |!ped! ^D,4!ped-up!!ped! ^C,4!ped-up! | %67
!ped! (^D,>B,, A,2)!ped-up!!ped! G,2 E,2!ped-up! |!ped! ^D,4!ped-up!!ped! (E,>B,, G,2)!ped-up! | %69
!ped! F,6!ped-up! z2 | (E,,2 F,,2 ^G,,2 A,,2 | B,,2 C,2 ^C,2 D,2 | E,2 F,2 T[G,B,]4 | %73
 (G,2 F,2)) (G,>D,[I:staff -1] D2) | %74
[I:staff +1] (G,>D,[I:staff -1] D2)[I:staff +1] (G,>D,[I:staff -1] D2) | %75
[I:staff +1] [G,,D,B,]4 z2 .A,,.B,, | .C,.^C,.D,.E,!ped! (F,>D, D2)!ped-up! | %77
!ped! D,4!ped-up![K:treble]!ped! z3/2 ([F,D]/ A2)!ped-up! | %78
!ped! z3/2 ([G,D]/ B2)!ped-up!!ped! z3/2 ([A,D]/ c2)!ped-up! | %79
!ped! z2 !arpeggio![G,^DGB^d]2[K:bass] .A,,!ped-up!.B,,.C,.^C, | %80
 .C,.^C,.D,.E,!ped! (F,>D, D2)!ped-up! |!ped! D,4!ped-up! z2 z2 | (A,,2 B,,2 C,2 ^C,2 | %83
 D,2 ^D,2 E,2 E,,2 | F,,2 G,,2 A,,2 B,,2 | E,,2 F,,2 G,,2)!ped! [E,,B,,]2!ped-up! | %86
!ped!{/B,,,} [B,,^D,]4!ped-up!!ped! [E,,B,,^C,]4!ped-up! | %87
!ped! (^D,>B,, A,2)!ped-up!!ped! G,2 E,2!ped-up! | %88
!ped!{/B,,,} [B,,^D,]4!ped-up!!ped!"^`rit." (E,>B,, G,2)!ped-up! |!ped! !arpeggio!F,6 z2!ped-up! | %90
 (E,,2 F,,2 ^G,,2 A,,2 | B,,2 C,2 ^C,2 D,2 | E,2 F,2 T[G,B,]4 | (G,2 F,2)) (G,>D,[I:staff -1] D2) | %94
[I:staff +1] (F,>C,[I:staff -1] B,2)[I:staff +1] (=F,>B,,[I:staff -1] B,2) | %95
!ped![I:staff +1] [E,G,C]4!ped-up! .[A,,,A,,].[B,,,B,,].[C,,C,].[A,,,A,,] | %96
 .B,,.^A,,.=A,,.G,,!ped! (F,,2 B,,2)!ped-up! | %97
!ped! !arpeggio![E,,,E,,B,,]4!ped-up! z2!ped! !arpeggio![^C,G,B,=F]2!ped-up! | %98
 z2!ped! !arpeggio![B,,G,^CE]2!ped-up! z2!ped! !arpeggio![A,,^F,B,^D]2!ped-up! | %99
!ped! z2 !arpeggio![G,,E,B,E]2 .A,!ped-up!.B,.C.A, | .F.E.^D.E .F.E.B,.E | .F.E.^D.E .F.^G.A.F || %102
[K:E]!ped! .[E,,B,,E,] z!ped-up! !wedge!A z !wedge!G z !wedge!F z |] %103
V:3
 x2 | x2 c x B x A x |: G x A x G x F x | E2 x6 | x8 | x8 | x4 (FE .D2) | z2 C2 B,2 [=CE]2 | %8
 [^CE]4 .[B,D]2 =A2 | %9
 [GB] x[I:staff +1] .c[I:staff -1].c[I:staff +1] .B[I:staff -1].B[I:staff +1].A[I:staff -1].A | %10
[I:staff +1] .G[I:staff -1].G[I:staff +1] .A[I:staff -1].A[I:staff +1] .G[I:staff -1].G[I:staff +1] .F[I:staff -1].F | %11
 x8 | x8 | .E2 x2 (FE .D2) | (EFGEDFB,D) | B,2 C2 ^B,2 [=CE]2 | [^CE]4 [=B,D]2 =A2 | %17
 [GB] x =d x c x B x | A x7 | x2 e x d x c x | B x7 | x2 f x e x d x | c x7 | x8 | x8 | %25
 d2 e2 =c2 B2 | A2 G2 F>^E =E2 | D8- | D2[I:staff +1] .F.G .A.B[I:staff -1].c.d | x4 (fe d2) | %30
 (efge dfBd) | z2 B2 c2 [AB]2 | G6 x2 | (EFGE DFB,D) | (EFGE DFB,D) | z2 ^A,B, ^B,CF,=A, | G,6 BA | %37
 GFGA Bc=dB |[I:staff +1] .A,[I:staff -1]G,A,B, CDE^E | FG^AB ceec | %40
[I:staff +1] .B,[I:staff -1]^A,B,C D^EF^^F | G^A^Bc defd |[I:staff +1] .C[I:staff -1]DEF ^^FGA^A | %43
 Bcde fgfe | defg fede | d2 B2 A2 G2 | F2 ^^C2 D2 E2 | TD8{C} | D2 x6 | %49
 ([Gg][Aa] .[Bb]2) .[Bb]2 .[Bb]2 | ([Gg][Aa] .[Bb]2) .[Bb]2 .[Bb]2 | e2 x2 e2 [AB]2 | x8 | %53
 x2 (cA GBEG) | x2 (cA GBEG) | B2 A2- A2 GF | e x7 | A,2 (G,B,) (E,F,^^F,G,) | %58
 A,2 (G,B,) (.E,.F,.^^F,.G,) | C2 =C2 B,2 A,2 | G,6 | x2 ||[K:G] C2 D2 E4 | D2 C2 B,4 | x8 | %65
 ^D2 =A,2 B,2 [^A,G]2 | F>B, =A2 [^A,G]4 | (FE^D^C B,2) [^A,G]2 | (F>B, =A2){GA} [^A,G]4 | %69
 [^DB]6 x2 | ^G2 A2 B2 A2 | =G6 F2 | [=C=c]4 B4 | G2 F2 x4 | x8 | x8 | x4 (=C4 | B,4) z2 [ac'd']2 | %78
 z2 [gbd']2 z2!p! [fad']2 | z2 [gb^d'g']2{B[B^d]f} .[ce].[B=d].[Ac].[GB] | x4 (=C4 | B,4) x4 | %82
 C2 D2 ^D2 E2 | =D2 ^C2 =C2 B,2 | ^C2 B,4 A,2 | G,2 A,2 B,2 [^A,^C]2 | (F>B, A2) [^A,G]4 | %87
 (FE^D^C B,2) [^A,G]2 | (F>B, A2){GA} [^A,G]4 | [^DB]6 z2 | ^G2 A2 B2 c2 | =D2 ^D2 E2 F2 | %92
 [Cc]4 B4 | (G2 F2) x4 | x8 | x8 | x4{^DE} (D3 E) | !arpeggio!G,4 z2!p! [=fab]2 | %98
 z2 [egb]2 z2 [^dgb]2 | z2 [Bebe']2 .[cf].[Bg].[Af].[Ge] | x8 | x8 ||[K:E] [EG] x c x B x A x |] %103
V:4
 x2 | x8 |: x2 C x B, x A, x | x6[K:bass] x2 | x8 | x4 B,,2 B,,2 | x4 B,,2 B,,2 | x8 | x8 | %9
 x2[K:treble] x6 | x8 | x6[K:bass] x2 | x8 | x2 .E,,2 .B,,2 .B,,2 | x2 .E,,2 .B,,2 .B,,2 | %15
 E,2 C,2 [G,,D,]2 =G,,2 | .B,,2 .F,,2 .B,,,2 z2 | x2[K:treble] x4 =D x | C x7 | x6 E x | D x7 | %21
 x6 F x | E x7 | x8 | x8 | z B,3 z B,3 | z B,3- B,4 |[K:bass] B,,8- | B,,2 x6 | x2 E,2 B,2 B,2 | %30
 x2 E,2 B,2 B,2 | x8 | x6 B,2 | x2 E,,2 B,,2 B,,2 | x2 E,,2 B,,2 B,,2 | x8 | x8 | %37
 x2 (=DC B,A,)A,G, | x8 | x2 (EB, CB,)B,^A, | x8 | x2 (FE DC)C^B, | x8 | x2[K:treble] FE DEFG | %44
 FEDE FGFG | F[K:bass] B,,3 x4 | x B,,3 x4 | B,,8- | B,,2 B,,2 B,,2 B,,2 | x2 B,,2 G,B, [B,F]2 | %50
 x2 B,,2 G,B, [B,F]2 | x8 | x8 | x2 E,,2 B,,2 E,2 | E2 E,,2 B,,2 E,2 | A,2 F,2 x4 | x8 | %57
 x4[K:treble] x4 |[K:bass] x4[K:treble] x4 |[K:bass] (A,,G,, F,,2) x4 | x6 | x2 ||[K:G] x8 | x8 | %64
 x8 | x6 B,,2 | B,,4 [E,,B,,]4 | B,,,4 [E,,B,,]2 [B,,^C,]2 |{/B,,,} B,,4 E,,4 | [B,,,F,,B,,]6 x2 | %70
 E,6 x2 | x8 | A,,2 D,2 B,,2 =C,2 | [D,A,]4 B,,4 | _B,,4 A,,4 | x8 | x4 D,,4 | G,,4[K:treble] x4 | %78
 x8 | x4[K:bass] x4 | x4 D,,4 | G,,4 x4 | x8 | x8 | x8 | x8 | x8 | B,,,4 [E,,B,,]2 [B,,^C,]2 | %88
 x4 E,,4 | !arpeggio![B,,,F,,B,,]6 z2 | x8 | x8 | A,,2 D,2 B,,2 =C,2 | D,4 G,,4 | F,,4 =F,,4 | %95
{/[C,,G,,C,]-} [C,,G,,C,]4 x4 | !tenuto!B,,,4 !tenuto!B,,,4 | x8 | x8 | x8 | !>!B,4 !>!B,4 | %101
 !>!B,2 !>!B,2 !>!B,2 !>!B,2 ||[K:E] x8 |] %103
V:5
 x2 | x8 |: x8 | x8 | x8 | x8 | x8 | x8 | x8 | x8 | x8 | x8 | x8 | x8 | x8 | x8 | x8 | x8 | x8 | %19
 x8 | x8 | x8 | x8 | x8 | x8 | x8 | x8 | x8 | x8 | x8 | x8 | x8 | x8 | x8 | x8 | x8 | x8 | x8 | %38
 x8 | x8 | x8 | x8 | x8 | x8 | x8 | x8 | x8 | x8 | x8 | x8 | x8 | x8 | x8 | x8 | x8 | x8 | x8 | %57
 x8 | x8 | x8 | x6 | x2 ||[K:G] A4 G4 | F4 E4 | [B,^D]4 ^C4 | x8 | x8 | x8 | x8 | x8 | E6 E2 | x8 | %72
 x8 | x8 | x8 | x8 | x8 | x8 | x8 | x8 | x8 | x8 | x2 G4 x2 | F6 E2 | D2 E2 ^C2 D2 | x8 | x8 | x8 | %88
 x8 | x8 | E6 E2 | G6 =D2 | x8 | D4 x4 | x8 | x8 | x8 | x8 | x8 | x8 | x8 | x8 ||[K:E] x8 |] %103
V:6
 x2 | x8 |: x8 | x6[K:bass] x2 | x8 | x8 | x8 | x8 | x8 | x2[K:treble] x6 | x8 | x6[K:bass] x2 | %12
 x8 | x8 | x8 | x8 | x8 | x2[K:treble] x6 | x8 | x8 | x8 | x8 | x8 | x8 | x8 | x8 | x8 | %27
[K:bass] x8 | x8 | x8 | x8 | x8 | x8 | x8 | x8 | x8 | x8 | x8 | x8 | x8 | x8 | x8 | x8 | %43
 x2[K:treble] x6 | x8 | x[K:bass] x7 | x8 | x8 | x8 | x8 | x8 | x8 | x8 | x8 | x8 | x8 | x8 | %57
 x4[K:treble] x4 |[K:bass] x4[K:treble] x4 |[K:bass] x8 | x6 | x2 ||[K:G] x8 | x8 | x8 | x8 | x8 | %67
 x8 | x8 | x8 | x8 | x8 | x8 | x8 | x8 | x8 | x8 | x4[K:treble] x4 | x8 | x4[K:bass] x4 | x8 | x8 | %82
 x8 | x8 | x8 | x8 | x8 | x8 | x8 | x8 | x8 | x8 | x8 | A,4 x4 | x8 | x8 | x8 | x8 | x8 | x8 | x8 | %101
 x8 ||[K:E] x8 |] %103

